lib/functional/games/sword.svg

<svg xmlns="http://www.w3.org/2000/svg" fill="none" stroke="currentColor" aria-hidden="true" viewBox="0 0 32 32"><g id="Icon-Sword"><g clip-path="url(#clip0_11_2540)"><g id="size=md (32px)"><g id="Sword"><path id="Vector" stroke-linecap="round" stroke-linejoin="round" stroke-width="2" d="M9.52539 16.525L19.0254 5.025L27.0004 5L26.9754 12.975L15.4754 22.475"/><path id="Vector_2" stroke-linecap="round" stroke-linejoin="round" stroke-width="2" d="M12.5 19.5L20 12"/><path id="Vector_3" stroke-linecap="round" stroke-linejoin="round" stroke-width="2" d="M10.2627 24.6875L6.52524 28.425C6.33777 28.612 6.08379 28.717 5.81899 28.717C5.55419 28.717 5.30021 28.612 5.11274 28.425L3.57524 26.8875C3.38823 26.7 3.2832 26.4461 3.2832 26.1813C3.2832 25.9165 3.38823 25.6625 3.57524 25.475L7.31274 21.7375C7.40723 21.6445 7.48226 21.5336 7.53348 21.4112C7.58469 21.2889 7.61107 21.1576 7.61107 21.025C7.61107 20.8924 7.58469 20.7611 7.53348 20.6388C7.48226 20.5165 7.40723 20.4056 7.31274 20.3125L4.71274 17.7125C4.61826 17.6195 4.54322 17.5086 4.49201 17.3862C4.44079 17.2639 4.41441 17.1326 4.41441 17C4.41441 16.8674 4.44079 16.7361 4.49201 16.6138C4.54322 16.4915 4.61826 16.3806 4.71274 16.2875L6.28774 14.7125C6.38079 14.618 6.4917 14.543 6.61402 14.4918C6.73634 14.4406 6.86763 14.4142 7.00024 14.4142C7.13285 14.4142 7.26414 14.4406 7.38646 14.4918C7.50878 14.543 7.61969 14.618 7.71274 14.7125L17.2877 24.2875C17.3822 24.3806 17.4573 24.4915 17.5085 24.6138C17.5597 24.7361 17.5861 24.8674 17.5861 25C17.5861 25.1326 17.5597 25.2639 17.5085 25.3862C17.4573 25.5086 17.3822 25.6195 17.2877 25.7125L15.7127 27.2875C15.6197 27.382 15.5088 27.457 15.3865 27.5082C15.2641 27.5595 15.1329 27.5858 15.0002 27.5858C14.8676 27.5858 14.7363 27.5595 14.614 27.5082C14.4917 27.457 14.3808 27.382 14.2877 27.2875L11.6877 24.6875C11.5947 24.593 11.4838 24.518 11.3615 24.4668C11.2391 24.4156 11.1079 24.3892 10.9752 24.3892C10.8426 24.3892 10.7113 24.4156 10.589 24.4668C10.4667 24.518 10.3558 24.593 10.2627 24.6875Z"/></g></g></g></g><defs><clipPath id="clip0_11_2540"><rect width="32" height="32" fill="white" rx="5"/></clipPath></defs></svg>

<svg xmlns="http://www.w3.org/2000/svg" fill="none" stroke="currentColor" aria-hidden="true" viewBox="0 0 32 32"><g stroke="#101828" stroke-linecap="round" stroke-linejoin="round" stroke-width="2" clip-path="url(#a)"><path d="m9.525 16.525 9.5-11.5L27 5l-.025 7.975-11.5 9.5M12.5 19.5 20 12"/><path d="m10.263 24.688-3.738 3.737a1 1 0 0 1-1.412 0l-1.538-1.538a1 1 0 0 1 0-1.412l3.738-3.738a.999.999 0 0 0 0-1.424l-2.6-2.6a.999.999 0 0 1 0-1.425l1.575-1.575a1 1 0 0 1 1.425 0l9.575 9.575a1 1 0 0 1 0 1.424l-1.575 1.576a.999.999 0 0 1-1.425 0l-2.6-2.6a.999.999 0 0 0-1.425 0Z"/></g><defs><clipPath id="a"><rect width="32" height="32" fill="#fff" rx="5"/></clipPath></defs></svg>
